X: 3
P: Bingsj\"o polska i A
O: efter Kalle Alml\"of
Z: John Chambers <jc@trillian.mit.edu>
N: From a transcription by Christine Anderson, 1991
M: 3/4
L: 1/16
K: A
|: "A"A,2CE A2z2 c4 \
| e2a2 "(D)"f2{gf}ed "A"c4 \
| "E"B3c "D"d2fd "A"c2ec \
| "E"EGBG "A"A2AE C2EC |
| "A"A,2CE A2z2 c4 \
| e2a2 f2{gf}ed c4 \
| "E"B3c "D"d2fd "A"c2ec \
| "E"EGBG "A"A8 \
:: "A"ABcd e2ae c2ec |
| ABcd e2ce a4 \
| "D"Adfd Adfd Adfd \
| "A"Acec Acec Acec \
| "D"Adfd Adfd Adfd |
| "A"Acec Acec Acec \
| cdcB A4 "E"E4 \
| "A"A2A2 "E"B2{cB}AB "A"c4 \
| "Bm"B3c d2e2 "D"f2a2 \
| "E7"gabg "A"a8 :|
